html/app/assets/img/ui/minus.svg

<svg fill="none" height="22" viewBox="0 0 22 22" width="22" xmlns="http://www.w3.org/2000/svg"><path clip-rule="evenodd" d="m11 2c-4.97056 0-9 4.02944-9 9 0 4.9706 4.02944 9 9 9 4.9706 0 9-4.0294 9-9 0-4.97056-4.0294-9-9-9zm-11 9c0-6.07513 4.92487-11 11-11 6.0751 0 11 4.92487 11 11 0 6.0751-4.9249 11-11 11-6.07513 0-11-4.9249-11-11zm6 0c0-.5523.44772-1 1-1h8c.5523 0 1 .4477 1 1s-.4477 1-1 1h-8c-.55228 0-1-.4477-1-1z" fill="#222" fill-rule="evenodd"/></svg>

<svg width="22" height="22" viewBox="0 0 22 22" fill="none" xmlns="http://www.w3.org/2000/svg">
<path fill-rule="evenodd" clip-rule="evenodd" d="M11 2C6.02944 2 2 6.02944 2 11C2 15.9706 6.02944 20 11 20C15.9706 20 20 15.9706 20 11C20 6.02944 15.9706 2 11 2ZM0 11C0 4.92487 4.92487 0 11 0C17.0751 0 22 4.92487 22 11C22 17.0751 17.0751 22 11 22C4.92487 22 0 17.0751 0 11ZM6 11C6 10.4477 6.44772 10 7 10H15C15.5523 10 16 10.4477 16 11C16 11.5523 15.5523 12 15 12H7C6.44772 12 6 11.5523 6 11Z" fill="#222222"/>
</svg>
